svgs/burger_king.svg

<svg width="192" height="192" viewBox="0 0 192 192" fill="none" xmlns="http://www.w3.org/2000/svg">
<path d="M96 22C60.7296 22 31.731 37.7957 28.3329 58.0172C27.9667 60.1958 29.7909 62 32 62H160C162.209 62 164.033 60.1958 163.667 58.0172C160.269 37.7957 131.27 22 96 22Z" stroke="black" stroke-width="12" stroke-linejoin="round"/>
<path d="M96 170C142.946 170 160.55 161.849 163.528 149.963C164.065 147.82 162.209 146 160 146H32C29.7909 146 27.9348 147.82 28.4717 149.963C31.4499 161.849 49.0536 170 96 170Z" stroke="black" stroke-width="12" stroke-linejoin="round"/>
<path d="M106 82V110M106 126V110M106 110L120 102.462M158 82L120 102.462M120 102.462L158 126" stroke="black" stroke-width="12" stroke-linecap="round"/>
<path d="M34 104H75C81.0751 104 86 108.925 86 115V115C86 121.075 81.0751 126 75 126H34V104Z" stroke="black" stroke-width="12" stroke-linejoin="round"/>
<path d="M34 82H69C75.0751 82 80 86.9249 80 93V93C80 99.0751 75.0751 104 69 104H34V82Z" stroke="black" stroke-width="12" stroke-linejoin="round"/>
</svg>

<svg width="192" height="192" fill="none" xmlns="http://www.w3.org/2000/svg"><path d="M96 22c-35.27 0-64.269 15.796-67.667 36.017C27.967 60.196 29.79 62 32 62h128c2.209 0 4.033-1.804 3.667-3.983C160.269 37.796 131.27 22 96 22zM96 170c46.946 0 64.55-8.151 67.528-20.037.537-2.143-1.319-3.963-3.528-3.963H32c-2.21 0-4.065 1.82-3.528 3.963C31.45 161.849 49.054 170 96 170z" stroke="#000" stroke-width="12" stroke-linejoin="round"/><path d="M106 82v28m0 16v-16m0 0 14-7.538M158 82l-38 20.462m0 0L158 126" stroke="#000" stroke-width="12" stroke-linecap="round"/><path d="M34 104h41c6.075 0 11 4.925 11 11s-4.925 11-11 11H34v-22zM34 82h35c6.075 0 11 4.925 11 11s-4.925 11-11 11H34V82z" stroke="#000" stroke-width="12" stroke-linejoin="round"/></svg>
